X:612
T: WAHRE FREUNDSCHAFT SOLL NICHT WANKEN
N: E0568
O: Europa, Mitteleuropa, Deutschland, Schlesien; Brandenburg; Hessen
R: Liebes - Lied, Treue, Abschied
M: 4/4
L: 1/8
K: F
cA | F3FF3A | AGG2z2
FA | c3cBABc | A4z2
FF | d3df2ed | dcc2z2
Ac | c2dcB3E | F4z2

